img/icon/ok.svg

<svg width="24" height="24" viewBox="0 0 24 24" fill="none" xmlns="http://www.w3.org/2000/svg">
<g id="Icon ">
<path id="Oval" opacity="0.15" fill-rule="evenodd" clip-rule="evenodd" d="M12 24C18.6274 24 24 18.6274 24 12C24 5.37258 18.6274 0 12 0C5.37258 0 0 5.37258 0 12C0 18.6274 5.37258 24 12 24Z" fill="#36B37E"/>
<path id="Icon" d="M10.3984 15.8242L7.13666 12.582C7.04551 12.4909 6.99994 12.3737 6.99994 12.2305C6.99994 12.0872 7.04551 11.97 7.13666 11.8789L7.85931 11.1758C7.95046 11.0716 8.06439 11.0195 8.20111 11.0195C8.33783 11.0195 8.45827 11.0716 8.56244 11.1758L10.7499 13.3633L15.4374 8.67578C15.5416 8.57161 15.662 8.51953 15.7987 8.51953C15.9355 8.51953 16.0494 8.57161 16.1405 8.67578L16.8632 9.3789C16.9543 9.47005 16.9999 9.58724 16.9999 9.73047C16.9999 9.87369 16.9543 9.99088 16.8632 10.082L11.1015 15.8242C11.0103 15.9284 10.8932 15.9805 10.7499 15.9805C10.6067 15.9805 10.4895 15.9284 10.3984 15.8242Z" fill="#36B37E"/>
</g>
</svg>

<svg width="24" height="24" fill="none" xmlns="http://www.w3.org/2000/svg"><g fill="#36B37E"><path opacity=".15" fill-rule="evenodd" clip-rule="evenodd" d="M12 24c6.627 0 12-5.373 12-12S18.627 0 12 0 0 5.373 0 12s5.373 12 12 12z"/><path d="m10.398 15.824-3.261-3.242A.476.476 0 0 1 7 12.23c0-.143.046-.26.137-.351l.722-.703a.435.435 0 0 1 .342-.156c.137 0 .257.052.361.156l2.188 2.187 4.687-4.687a.496.496 0 0 1 .362-.156c.136 0 .25.052.341.156l.723.703A.476.476 0 0 1 17 9.73c0 .144-.046.26-.137.352l-5.761 5.742a.446.446 0 0 1-.352.156.446.446 0 0 1-.352-.156z"/></g></svg>
